**kern	**silbe	**kern	**silbe	**harmony	**phrase	**leadinstrument	**rhyme	**timestamp	**harte
*ICvox	*	*ICvox	*	*M4/4	*	*	*	*	*M4/4
*VRlead	*	*VRharmonize	*	*	*	*	*	*	*
*Hstimme	*	*Nstimme	*	*	*	*	*	*	*
*G:	*	*G:	*	*G:	*	*	*	*	*G:
*M4/4	*	*M4/4	*	*	*	*	*	*	*
*clefG2	*	*clefG2	*	*	*	*	*	*	*
r;	.	r;	.	1r;	.	r	.	0	N.C.
=1	=1	=1	=1	=1	=1	=1	=1	=1	=1
*>Letter>A	*>Letter>A	*>Letter>A	*>Letter>A	*>Letter>A	*>Letter>A	*>Letter>A	*>Letter>A	*>Letter>A	*>Letter>A
*>Label>Intro	*>Label>Intro	*>Label>Intro	*>Label>Intro	*>Label>Intro	*>Label>Intro	*>Label>Intro	*>Label>Intro	*>Label>Intro	*>Label>Intro
1r	.	1r	.	1GM	newline	trombone	.	0.348	G:maj
=2	=2	=2	=2	=2	=2	=2	=2	=2	=2
1r	.	1r	.	1CM	.	trombone	.	2.39	C:maj
=3	=3	=3	=3	=3	=3	=3	=3	=3	=3
1r	.	1r	.	1GM	.	trombone	.	4.432	G:maj
=4	=4	=4	=4	=4	=4	=4	=4	=4	=4
1r	.	1r	.	2Amm	.	trombone	.	6.474	A:min7
.	.	.	.	2DM	.	trombone	.	7.495	D:maj
=5	=5	=5	=5	=5	=5	=5	=5	=5	=5
1r	.	1r	.	2GM	newline	trombone	.	8.516	G:maj
.	.	.	.	2CM	.	trombone	.	9.526	C:maj
=6	=6	=6	=6	=6	=6	=6	=6	=6	=6
1r	.	1r	.	2GM	.	trombone	.	10.536	G:maj
.	.	.	.	2DM	.	trombone	.	11.545	D:1
=7	=7	=7	=7	=7	=7	=7	=7	=7	=7
*>Letter>B	*>Letter>B	*>Letter>B	*>Letter>B	*>Letter>B	*>Letter>B	*>Letter>B	*>Letter>B	*>Letter>B	*>Letter>B
*>Label>Verse	*>Label>Verse	*>Label>Verse	*>Label>Verse	*>Label>Verse	*>Label>Verse	*>Label>Verse	*>Label>Verse	*>Label>Verse	*>Label>Verse
4r	.	4r	.	2GM	newline	voice	.	12.555	G:maj
8d	We	8B	We	.	.	.	.	.	.
8d	hold	8B	hold	.	.	.	.	.	.
2e	hands	2c	hands	2CM	.	voice	.	13.58	C:maj
=8	=8	=8	=8	=8	=8	=8	=8	=8	=8
4r	.	4r	.	2GM	.	voice	.	14.604	G:maj
8d	in	8B	in	.	.	.	.	.	.
8d	the	8B	the	.	.	.	.	.	.
8e	mo-	8c	mo-	2CM	.	voice	.	15.629	C:maj
8e	-vie	8c	-vie	.	.	.	.	.	.
4e	show	4c	show	.	.	.	.	.	.
=9	=9	=9	=9	=9	=9	=9	=9	=9	=9
4r	.	4r	.	2GM	.	voice	.	16.654	G:maj
8d	So	8B	So	.	.	.	.	.	.
8d	they	8B	they	.	.	.	.	.	.
4.e	say	4.c	say	2CM	.	voice	.	17.678	C:maj
8e	that	8c	that	.	.	.	.	.	.
=10	=10	=10	=10	=10	=10	=10	=10	=10	=10
4d	we're	4B	we're	4GM	.	voice	.	18.703	G:maj
4c	old	4A	old	4FM	.	voice	.	19.215	F:maj
4B	fa-	4G	fa-	4Em	.	voice	.	19.728	E:min
4A	-shioned	4F	-shioned	4Dm	.	voice	.	20.24	D:min
=11	=11	=11	=11	=11	=11	=11	=11	=11	=11
4r	.	4r	.	2CM	newline	voice	.	20.752	C:maj
8e	Or	8c	Or	.	.	.	.	.	.
8e	we	8c	we	.	.	.	.	.	.
2f#	stroll	2d	stroll	2DM	.	voice	.	21.779	D:maj
=12	=12	=12	=12	=12	=12	=12	=12	=12	=12
8r	.	8r	.	2CM	.	voice	.	22.805	C:maj
8g	be-	8e	be-	.	.	.	.	.	.
8g	-neath	8e	-neath	.	.	.	.	.	.
8g	the	8e	the	.	.	.	.	.	.
4.f#	sil-	4.d	sil-	2DM	.	voice	.	23.832	D:maj
8e	-very	8c	-very	.	.	.	.	.	.
=13	=13	=13	=13	=13	=13	=13	=13	=13	=13
2d	moon	2B	moon	2GM	.	voice	.	24.859	G:maj
8e	_	8c	_	2CM	.	voice	.	25.885	C:maj
8e	_	8c	_	.	.	.	.	.	.
8r	.	8r	.	.	.	.	.	.	.
8e	_	8c	_	.	.	.	.	.	.
=14	=14	=14	=14	=14	=14	=14	=14	=14	=14
4d	_	4B	_	1GM	.	voice	.	26.912	G:maj
4r	.	4r	.	.	.	.	.	.	.
2r	.	2r	.	.	.	.	.	.	.
=15	=15	=15	=15	=15	=15	=15	=15	=15	=15
4r	.	4r	.	2CM	newline	voice	.	28.965	C:maj
8e	And	8c	And	.	.	.	.	.	.
8e	we	8c	we	.	.	.	.	.	.
4f#	carve	4d	carve	2DM	.	voice	.	29.986	D:maj
4r	.	4r	.	.	.	.	.	.	.
=16	=16	=16	=16	=16	=16	=16	=16	=16	=16
4r	.	4r	.	2CM	.	voice	.	31.008	C:maj
8g	our	8e	our	.	.	.	.	.	.
8g	in-	8e	in-	.	.	.	.	.	.
4f#	-i-	4d	-i-	2DM	.	voice	.	32.029	D:maj
4e	-tials	4c	-tials	.	.	.	.	.	.
=17	=17	=17	=17	=17	=17	=17	=17	=17	=17
4d	in	4B	in	2GM	.	voice	.	33.05	G:maj
4d	the	4B	the	.	.	.	.	.	.
4c#	old	4A#	old	4F#M	.	voice	.	34.071	F#:maj
4c	oak	4A	oak	4FM	.	voice	.	34.582	F:maj
=18	=18	=18	=18	=18	=18	=18	=18	=18	=18
2.B	tree	2.G#	tree	1EMm	.	voice	A	35.092	E:7
4r	.	4r	.	.	.	.	.	.	.
=19	=19	=19	=19	=19	=19	=19	=19	=19	=19
4r	.	4r	.	1AMm	newline	voice	.	37.135	A:7
8c#	That's	8A	That's	.	.	.	.	.	.
8c#	old	8A	old	.	.	.	.	.	.
4c#	fas-	4A	fas-	.	.	.	.	.	.
4c#	-hioned,	4A	-hioned,	.	.	.	.	.	.
=20	=20	=20	=20	=20	=20	=20	=20	=20	=20
4r	.	4r	.	1DMm	.	voice	.	39.175	D:7
8A	That's	8F#	That's	.	.	.	.	.	.
8A	the	8F#	the	.	.	.	.	.	.
8A	way	8F#	way	.	.	.	.	.	.
4B	love	4G	love	.	.	.	.	.	.
8c	should	8A	should	.	.	.	.	.	.
=21	=21	=21	=21	=21	=21	=21	=21	=21	=21
[1B	be	[1G	be	2GM	.	voice	A	41.216	G:maj
.	.	.	.	2CM	.	voice	.	42.236	C:maj
=22	=22	=22	=22	=22	=22	=22	=22	=22	=22
4B]	_	4G]	_	2GM	.	voice	.	43.256	G:maj
4r	.	4r	.	.	.	.	.	.	.
2r	.	2r	.	2DMm	.	voice	.	44.277	D:7
=23	=23	=23	=23	=23	=23	=23	=23	=23	=23
*>Letter>B	*>Letter>B	*>Letter>B	*>Letter>B	*>Letter>B	*>Letter>B	*>Letter>B	*>Letter>B	*>Letter>B	*>Letter>B
*>Label>Verse	*>Label>Verse	*>Label>Verse	*>Label>Verse	*>Label>Verse	*>Label>Verse	*>Label>Verse	*>Label>Verse	*>Label>Verse	*>Label>Verse
4r	.	4r	.	2GM	newline	voice	.	45.297	G:maj
8d	We	8B	We	.	.	.	.	.	.
8d	en-	8B	en-	.	.	.	.	.	.
2e	-joy	2c	-joy	2CM	.	voice	.	46.321	C:maj
=24	=24	=24	=24	=24	=24	=24	=24	=24	=24
4r	.	4r	.	2GM	.	voice	.	47.345	G:maj
8d	sit-	8B	sit-	.	.	.	.	.	.
8d	-ting	8B	-ting	.	.	.	.	.	.
8e	side	8c	side	2CM	.	voice	.	48.37	C:maj
8e	by	8c	by	.	.	.	.	.	.
4e	side	4c	side	.	.	.	.	.	.
=25	=25	=25	=25	=25	=25	=25	=25	=25	=25
4r	.	4r	.	2GM	.	voice	.	49.394	G:maj
8d	In	8B	In	.	.	.	.	.	.
8d	the	8B	the	.	.	.	.	.	.
4e	booth	4c	booth	2CM	.	voice	.	50.418	C:maj
8e	in	8c	in	.	.	.	.	.	.
8e	the	8c	the	.	.	.	.	.	.
=26	=26	=26	=26	=26	=26	=26	=26	=26	=26
4d	ice	4B	ice	4GM	.	voice	.	51.442	G:maj
4c	cream	4A	cream	4FM	.	voice	.	51.954	F:maj
4B	par-	4G	par-	4Em	.	voice	.	52.466	E:min
4A	-lour	4F	-lour	4Dm	.	voice	.	52.978	D:min
=27	=27	=27	=27	=27	=27	=27	=27	=27	=27
4r	.	4r	.	2CM	newline	voice	.	53.49	C:maj
8e	Where	8c	Where	.	.	.	.	.	.
8e	we	8c	we	.	.	.	.	.	.
2f#	play	2d	play	2DM	.	voice	.	54.509	D:maj
=28	=28	=28	=28	=28	=28	=28	=28	=28	=28
8r	.	8r	.	2CM	.	voice	.	55.528	C:maj
8g	the	8e	the	.	.	.	.	.	.
8g	nick-	8e	nick-	.	.	.	.	.	.
8g	-el-	8e	-el-	.	.	.	.	.	.
4.f#	-o-	4.d	-o-	2DM	.	voice	.	56.547	D:maj
8e	-de-	8c	-de-	.	.	.	.	.	.
=29	=29	=29	=29	=29	=29	=29	=29	=29	=29
2d	-on	2B	-on	2GM	.	voice	.	57.566	G:maj
8e	_	8c	_	2CM	.	voice	.	58.584	C:maj
8e	_	8c	_	.	.	.	.	.	.
8r	.	8r	.	.	.	.	.	.	.
8e	_	8c	_	.	.	.	.	.	.
=30	=30	=30	=30	=30	=30	=30	=30	=30	=30
4d	_	4B	_	1GM	.	voice	.	59.603	G:maj
4r	.	4r	.	.	.	.	.	.	.
2r	.	2r	.	.	.	.	.	.	.
=31	=31	=31	=31	=31	=31	=31	=31	=31	=31
4r	.	4r	.	2CM	newline	voice	.	61.641	C:maj
8e	And	8c	And	.	.	.	.	.	.
8e	we	8c	we	.	.	.	.	.	.
4f#	dance	4d	dance	2DM	.	voice	.	62.665	D:maj
4r	.	4r	.	.	.	.	.	.	.
=32	=32	=32	=32	=32	=32	=32	=32	=32	=32
4r	.	4r	.	2CM	.	voice	.	63.689	C:maj
8g	when	8e	when	.	.	.	.	.	.
8g	we	8e	we	.	.	.	.	.	.
4f#	hear	4d	hear	2DM	.	voice	.	64.714	D:maj
4e	our	4c	our	.	.	.	.	.	.
=33	=33	=33	=33	=33	=33	=33	=33	=33	=33
4d	fa-	4B	fa-	2GM	.	voice	.	65.738	G:maj
4d	-vourite	4B	-vourite	.	.	.	.	.	.
4c#	me-	4A#	me-	4F#M	.	voice	.	66.763	F#:maj
4c	-lo-	4A	-lo-	4FM	.	voice	.	67.275	F:maj
=34	=34	=34	=34	=34	=34	=34	=34	=34	=34
2.B	-dy	2.G#	-dy	1EMm	.	voice	B	67.787	E:7
4r	.	4r	.	.	.	.	.	.	.
=35	=35	=35	=35	=35	=35	=35	=35	=35	=35
4r	.	4r	.	1AMm	newline	voice	.	69.836	A:7
8c#	That's	8A	That's	.	.	.	.	.	.
8c#	old	8A	old	.	.	.	.	.	.
4c#	fas-	4A	fas-	.	.	.	.	.	.
4c#	-hioned,	4A	-hioned,	.	.	.	.	.	.
=36	=36	=36	=36	=36	=36	=36	=36	=36	=36
4r	.	4r	.	1DMm	.	voice	.	71.87	D:7
8A	That's	8F#	That's	.	.	.	.	.	.
8A	the	8F#	the	.	.	.	.	.	.
8A	way	8F#	way	.	.	.	.	.	.
4B	love	4G	love	.	.	.	.	.	.
8c	should	8A	should	.	.	.	.	.	.
=37	=37	=37	=37	=37	=37	=37	=37	=37	=37
2B	be	2G	be	2GM	.	voice	B	73.903	G:maj
8c	_	8G	_	2CM	.	voice	.	74.92	C:maj
4c	_	4G	_	.	.	.	.	.	.
[8B	_	[8G	_	.	.	.	.	.	.
=38	=38	=38	=38	=38	=38	=38	=38	=38	=38
4B]	_	4G]	_	1GM	.	voice	.	75.937	G:maj
4r	.	4r	.	.	.	.	.	.	.
2r	.	2r	.	.	.	.	.	.	.
=39	=39	=39	=39	=39	=39	=39	=39	=39	=39
*>Letter>C	*>Letter>C	*>Letter>C	*>Letter>C	*>Letter>C	*>Letter>C	*>Letter>C	*>Letter>C	*>Letter>C	*>Letter>C
*>Label>Bridge	*>Label>Bridge	*>Label>Bridge	*>Label>Bridge	*>Label>Bridge	*>Label>Bridge	*>Label>Bridge	*>Label>Bridge	*>Label>Bridge	*>Label>Bridge
4r	.	1r	.	2CM	newline	voice	.	77.971	C:maj
8e	It's	.	.	.	.	.	.	.	.
8e	a	.	.	.	.	.	.	.	.
8f#	mo-	.	.	2DM	.	voice	.	78.995	D:maj
[4.f#	-dern	.	.	.	.	.	.	.	.
=40	=40	=40	=40	=40	=40	=40	=40	=40	=40
8f#]	_	1r	.	2GM	.	voice	.	80.018	G:maj
4d	chan-	.	.	.	.	.	.	.	.
4e	-ging	.	.	.	.	.	.	.	.
.	.	.	.	2Em	.	voice	.	81.042	E:min
4.G	world	.	.	.	.	.	.	.	.
=41	=41	=41	=41	=41	=41	=41	=41	=41	=41
8c	Eve-	1r	.	2CM	.	voice	.	82.065	C:maj
8B	-ry	.	.	.	.	.	.	.	.
8c	thing	.	.	.	.	.	.	.	.
8B	is	.	.	.	.	.	.	.	.
8d	mo-	.	.	2DM	.	voice	.	83.089	D:maj
4d	_	.	.	.	.	.	.	.	.
8e	-ving	.	.	.	.	.	.	.	.
=42	=42	=42	=42	=42	=42	=42	=42	=42	=42
16B	fast	1r	.	1GM	.	voice	C	84.112	G:maj
16A	_	.	.	.	.	.	.	.	.
16B	_	.	.	.	.	.	.	.	.
[16d	_	.	.	.	.	.	.	.	.
4d]	_	.	.	.	.	.	.	.	.
2r	.	.	.	.	.	.	.	.	.
=43	=43	=43	=43	=43	=43	=43	=43	=43	=43
8r	.	1r	.	2CM	newline	voice	.	86.159	C:maj
8e	But	.	.	.	.	.	.	.	.
8e	when	.	.	.	.	.	.	.	.
8e	it	.	.	.	.	.	.	.	.
4.f#	comes	.	.	2DM	.	voice	.	87.182	D:maj
8f#	to	.	.	.	.	.	.	.	.
=44	=44	=44	=44	=44	=44	=44	=44	=44	=44
4d	love	1r	.	2GM	.	voice	.	88.204	G:maj
4e	I	.	.	.	.	.	.	.	.
4G	like	.	.	2Em	.	voice	.	89.226	E:min
4r	.	.	.	.	.	.	.	.	.
=45	=45	=45	=45	=45	=45	=45	=45	=45	=45
4r	.	1r	.	1AMm	.	voice	.	90.248	A:7
8e	What	.	.	.	.	.	.	.	.
8e	they	.	.	.	.	.	.	.	.
8e	did	.	.	.	.	.	.	.	.
4f#	in	.	.	.	.	.	.	.	.
8e	the	.	.	.	.	.	.	.	.
=46	=46	=46	=46	=46	=46	=46	=46	=46	=46
8e	past	1r	.	1DMm	.	voice	C	92.293	D:7
4.d	_	.	.	.	.	.	.	.	.
2r	.	.	.	.	.	.	.	.	.
=47	=47	=47	=47	=47	=47	=47	=47	=47	=47
*>Letter>B	*>Letter>B	*>Letter>B	*>Letter>B	*>Letter>B	*>Letter>B	*>Letter>B	*>Letter>B	*>Letter>B	*>Letter>B
*>Label>Verse	*>Label>Verse	*>Label>Verse	*>Label>Verse	*>Label>Verse	*>Label>Verse	*>Label>Verse	*>Label>Verse	*>Label>Verse	*>Label>Verse
4r	.	4r	.	2GM	newline	voice	.	94.337	G:maj
8d	I'm	8B	I'm	.	.	.	.	.	.
8d	the	8B	the	.	.	.	.	.	.
2e	kind	2c	kind	2CM	.	voice	.	95.357	C:maj
=48	=48	=48	=48	=48	=48	=48	=48	=48	=48
4r	.	4r	.	2GM	.	voice	.	96.377	G:maj
8d	who	8B	who	.	.	.	.	.	.
8d	loves	8B	loves	.	.	.	.	.	.
8e	on-	8c	on-	2CM	.	voice	.	97.396	C:maj
8e	-ly	8c	-ly	.	.	.	.	.	.
4e	one	4c	one	.	.	.	.	.	.
=49	=49	=49	=49	=49	=49	=49	=49	=49	=49
4r	.	4r	.	2GM	.	voice	.	98.416	G:maj
8d	So	8B	So	.	.	.	.	.	.
8d	the	8B	the	.	.	.	.	.	.
4.e	boys	4.c	boys	2CM	.	voice	.	99.436	C:maj
8e	say	8c	say	.	.	.	.	.	.
=50	=50	=50	=50	=50	=50	=50	=50	=50	=50
4d	I'm	4B	I'm	4GM	.	voice	.	100.455	G:maj
4c	old	4A	old	4FM	.	voice	.	100.965	F:maj
4B	fa-	4G	fa-	4Em	.	voice	.	101.475	E:min
4A	-shioned	4F	-shioned	4Dm	.	voice	.	101.985	D:min
=51	=51	=51	=51	=51	=51	=51	=51	=51	=51
4r	.	4r	.	2CM	newline	voice	.	102.495	C:maj
8e	Let	8c	Let	.	.	.	.	.	.
8e	them	8c	them	.	.	.	.	.	.
2f#	laugh,	2d	laugh,	2DM	.	voice	.	103.517	D:maj
=52	=52	=52	=52	=52	=52	=52	=52	=52	=52
4r	.	4r	.	2CM	.	voice	.	104.539	C:maj
8g	ho-	8e	ho-	.	.	.	.	.	.
8g	-ney	8e	-ney	.	.	.	.	.	.
4.f#	I	4.d	I	2DM	.	voice	.	105.561	D:maj
8e	don't	8c	don't	.	.	.	.	.	.
=53	=53	=53	=53	=53	=53	=53	=53	=53	=53
2d	mind	2B	mind	2GM	.	voice	.	106.582	G:maj
8e	_	8c	_	2CM	.	voice	.	107.604	C:maj
8e	_	8c	_	.	.	.	.	.	.
8r	.	8r	.	.	.	.	.	.	.
8e	_	8c	_	.	.	.	.	.	.
=54	=54	=54	=54	=54	=54	=54	=54	=54	=54
4d	_	4B	_	1GM	.	voice	.	108.626	G:maj
4r	.	4r	.	.	.	.	.	.	.
2r	.	2r	.	.	.	.	.	.	.
=55	=55	=55	=55	=55	=55	=55	=55	=55	=55
4r	.	4r	.	2CM	newline	voice	.	110.67	C:maj
8e	I've	8c	I've	.	.	.	.	.	.
8e	made	8c	made	.	.	.	.	.	.
4f#	plans	4d	plans	2DM	.	voice	.	111.689	D:maj
4r	.	4r	.	.	.	.	.	.	.
=56	=56	=56	=56	=56	=56	=56	=56	=56	=56
4r	.	4r	.	2CM	.	voice	.	112.708	C:maj
8g	for	8e	for	.	.	.	.	.	.
8g	a	8e	a	.	.	.	.	.	.
4.f#	wed-	4.d	wed-	2DM	.	voice	.	113.727	D:maj
8e	-ding	8c	-ding	.	.	.	.	.	.
=57	=57	=57	=57	=57	=57	=57	=57	=57	=57
4d	day	4B	day	2GM	.	voice	.	114.745	G:maj
4d	for	4B	for	.	.	.	.	.	.
4c#	you	4A#	you	4F#M	.	voice	.	115.764	F#:maj
4c	and	4A	and	4FM	.	voice	.	116.274	F:maj
=58	=58	=58	=58	=58	=58	=58	=58	=58	=58
2.B	me	2.G#	me	1EMm	.	voice	D	116.783	E:7
4r	.	4r	.	.	.	.	.	.	.
=59	=59	=59	=59	=59	=59	=59	=59	=59	=59
4r	.	4r	.	1AMm	newline	voice	.	118.821	A:7
8c#	That's	8A	That's	.	.	.	.	.	.
8c#	old	8A	old	.	.	.	.	.	.
4c#	fas-	4A	fas-	.	.	.	.	.	.
4c#	-hioned,	4A	-hioned,	.	.	.	.	.	.
=60	=60	=60	=60	=60	=60	=60	=60	=60	=60
4r	.	4r	.	1DMm	.	voice	.	120.847	D:7
8A	That's	8F#	That's	.	.	.	.	.	.
8A	the	8F#	the	.	.	.	.	.	.
8A	way	8F#	way	.	.	.	.	.	.
4B	love	4G	love	.	.	.	.	.	.
8c	should	8A	should	.	.	.	.	.	.
=61	=61	=61	=61	=61	=61	=61	=61	=61	=61
2B	be	2G	be	2GM	.	voice	D	122.873	G:maj
8c	_	8G	_	2CM	.	voice	.	123.886	C:maj
4c	_	4G	_	.	.	.	.	.	.
[8B	_	[8G	_	.	.	.	.	.	.
=62	=62	=62	=62	=62	=62	=62	=62	=62	=62
4B]	_	4G]	_	1GM	.	voice	.	124.899	G:maj
4r	.	4r	.	.	.	.	.	.	.
2r	.	2r	.	.	.	.	.	.	.
=63	=63	=63	=63	=63	=63	=63	=63	=63	=63
*>Letter>A	*>Letter>A	*>Letter>A	*>Letter>A	*>Letter>A	*>Letter>A	*>Letter>A	*>Letter>A	*>Letter>A	*>Letter>A
*>Label>Coda	*>Label>Coda	*>Label>Coda	*>Label>Coda	*>Label>Coda	*>Label>Coda	*>Label>Coda	*>Label>Coda	*>Label>Coda	*>Label>Coda
1r	.	1r	.	1GM	newline	trombone	.	126.925	G:maj
=64	=64	=64	=64	=64	=64	=64	=64	=64	=64
1r	.	1r	.	1CM	.	trombone	.	128.913	C:maj
=65	=65	=65	=65	=65	=65	=65	=65	=65	=65
1r	.	1r	.	1GM	.	trombone	.	130.9	G:maj
=66	=66	=66	=66	=66	=66	=66	=66	=66	=66
1r	.	1r	.	2Amm	.	trombone	.	132.887	A:min7
.	.	.	.	2DM	.	trombone	.	133.881	D:maj
=67	=67	=67	=67	=67	=67	=67	=67	=67	=67
1r	.	1r	.	1GM	newline	guitar	.	134.875	G:maj
=68	=68	=68	=68	=68	=68	=68	=68	=68	=68
1r	.	1r	.	1GM	.	guitar	.	136.842	G:maj
r;	.	r;	.	1r;	.	r	.	140.04	N.C.
r;	.	r;	.	1r;	.	r	.	142.472	N.C.
*-	*-	*-	*-	*-	*-	*-	*-	*-	*-
!!!BillboardChartDate: 1962/06/30
!!!BillboardPeak: 9
!!!BillboardWeeksOnChart: 9
!!!COC: The Everly Brothers
!!!ENC: Nathaniel Condit-Schultz
!!!EST: Awating manual error checking and editing.
!!!OTL: That's Old Fashioned (That's The Way Love Should Be)
!!!RDF**chordsym: original McGill chord annotation + (implied pitch class set, with bass pitch in first position)
!!!RDF**harmony: **recip + pitch class of root + harmonic quality
!!!RDF**leadinstrument: original McGill primary instrumentation annotation
!!!RDF**phrase: newline = linebreak in original McGill transcription
!!!RDF**timestamp: McGill audio timestamp in seconds
!!!RDT: 2017/01/12/
!!!SampleActualRank: 12
!!!SampleID#: 1248
!!!SampleTargetRank: 10
